icons/svg/icons8/skiing.svg

<svg width="26" height="26" viewBox="0 0 26 26" fill="none" xmlns="http://www.w3.org/2000/svg">
<path d="M22.5 4.812C23.7774 4.812 24.813 3.77644 24.813 2.499C24.813 1.22157 23.7774 0.186005 22.5 0.186005C21.2226 0.186005 20.187 1.22157 20.187 2.499C20.187 3.77644 21.2226 4.812 22.5 4.812Z" fill="#333333"/>
<path d="M17.362 3.12199C18.397 3.12199 19.923 3.75399 19.923 5.27899C19.923 6.80399 18.945 9.61199 18.945 9.61199C18.945 9.61199 21.5 11.285 22.136 11.798C23.468 12.87 23.015 13.832 21.232 13.079C18.337 11.857 16.978 11.254 16.76 10.491C16.542 9.72799 16.735 8.17999 16.735 8.17999L15.062 8.87499L7.98401 3.67299C7.98401 3.67299 7.33401 4.13499 6.99401 4.13499C6.65201 4.13499 6.24401 3.88499 6.24401 3.88499L7.03101 2.82799L6.18701 1.79799L7.35901 2.29699C7.33701 2.29699 8.08401 1.31799 8.08401 1.31799C8.08401 1.31799 8.47101 1.54599 8.56201 1.99999C8.65301 2.45399 8.48401 2.89199 8.48401 2.89199L11.531 5.12499C11.531 5.12499 13.329 3.12199 17.362 3.12199Z" fill="#333333"/>
<path d="M9.8748 7.209C9.8748 7.209 15.6098 11.221 16.3728 11.82C17.1368 12.42 18.9538 14.008 17.0398 16.361C15.1658 18.665 13.1578 20.922 13.1578 20.922L12.0118 20.431L10.5398 19.667C10.5398 19.667 13.2988 16.225 13.7898 15.57C14.2798 14.916 14.1238 14.376 13.4578 13.876C12.8128 13.393 11.7178 12.757 10.7488 12.084C9.7908 11.418 8.2908 9.376 9.8748 7.209Z" fill="#333333"/>
<path d="M1.23291 13.304L21.0129 24.648C21.0129 24.648 23.5739 25.792 24.9369 23.939" stroke="#333333" stroke-width="2" stroke-miterlimit="10" stroke-linecap="round" stroke-linejoin="round"/>
</svg>

<?xml version="1.0" encoding="utf-8"?>
<!-- Generator: Adobe Illustrator 15.0.0, SVG Export Plug-In . SVG Version: 6.00 Build 0)  -->
<!DOCTYPE svg PUBLIC "-//W3C//DTD SVG 1.1//EN" "http://www.w3.org/Graphics/SVG/1.1/DTD/svg11.dtd">
<svg version="1.1" id="Layer_1" xmlns="http://www.w3.org/2000/svg" xmlns:xlink="http://www.w3.org/1999/xlink" x="0px" y="0px"
	 width="26px" height="26px" viewBox="0 0 26 26" enable-background="new 0 0 26 26" xml:space="preserve">
<rect fill="none" width="26" height="26"/>
<circle fill="#333333" cx="22.5" cy="2.499" r="2.313"/>
<path fill="#333333" d="M17.362,3.122c1.035,0,2.561,0.632,2.561,2.157s-0.978,4.333-0.978,4.333s2.555,1.673,3.191,2.186
	c1.332,1.072,0.879,2.034-0.904,1.281c-2.895-1.222-4.254-1.825-4.472-2.588S16.735,8.18,16.735,8.18l-1.673,0.695L7.984,3.673
	c0,0-0.65,0.462-0.99,0.462c-0.342,0-0.75-0.25-0.75-0.25l0.787-1.057l-0.844-1.03l1.172,0.499c-0.022,0,0.725-0.979,0.725-0.979
	s0.387,0.228,0.478,0.682S8.484,2.892,8.484,2.892l3.047,2.233C11.531,5.125,13.329,3.122,17.362,3.122z"/>
<path fill="#333333" d="M9.875,7.209c0,0,5.735,4.012,6.498,4.611c0.764,0.6,2.581,2.188,0.667,4.541
	c-1.874,2.304-3.882,4.561-3.882,4.561l-1.146-0.491l-1.472-0.764c0,0,2.759-3.442,3.25-4.097c0.49-0.654,0.334-1.194-0.332-1.694
	c-0.645-0.483-1.74-1.119-2.709-1.792C9.791,11.418,8.291,9.376,9.875,7.209z"/>
<path fill="none" stroke="#333333" stroke-width="2" stroke-linecap="round" stroke-linejoin="round" stroke-miterlimit="10" d="
	M1.233,13.304l19.78,11.344c0,0,2.561,1.144,3.924-0.709"/>
</svg>
